static/img/unchained-logo.svg

<svg height="680" viewBox="0 0 620 680" width="620" xmlns="http://www.w3.org/2000/svg"><g fill="none"><path d="m177.1 248.2c-9.422226-17.65486-9.422226-38.84514 0-56.5l-47.1 28.3z" fill="#6065f3"/><path d="m14.7 174.8c-6.20876155 29.813515-6.20876155 60.586485 0 90.4l75.3-45.2z" fill="#6065f3"/><path d="m230 360v140l-160-100z" fill="#00f5bc"/><g fill="#6065f3"><path d="m130 280h-111.7c12.810773 45.098728 39.6812724 84.931528 76.7 113.7l35-8.7z"/><path d="m390 320v140l-160-100z"/><path d="m230 280 91.4 57.1 68.6-17.1v-40z"/><path d="m230 500v140l-160-100z"/><path d="m390 460v140l-160-100z"/><path d="m390 600v80l-160-40z"/><path d="m230 640v40h-160z"/><path d="m0 470c0 38.659932 31.3400675 70 70 70v-140c-38.6599325 0-70 31.340068-70 70z"/><path d="m0 610c0 38.659932 31.3400675 70 70 70v-140c-38.6599325 0-70 31.340068-70 70z"/><path d="m550.000001 280-160.000001 40 160.000001 100c38.659932-.000001 69.999999-31.340068 69.999999-70s-31.340067-69.999999-69.999999-70z"/><path d="m550 420-160 40 160 100c38.659932 0 70-31.340068 70-70s-31.340068-70-70-70z"/></g><g fill="#00f5bc" transform="translate(18)"><path d="m532 560-160 40 160 80c33.137085 0 60-26.862915 60-60s-26.862915-60-60-60z"/><path d="m432 100-60 60h-371.7c26.1-92.3 111-160 211.7-160 122.9 0 220 100 220 100zm-170-60c-16.568542 0-30 13.4314575-30 30s13.431458 30 30 30 30-13.4314575 30-30-13.431458-30-30-30z"/></g></g></svg>

<?xml version="1.0" encoding="UTF-8"?>
<svg width="620px" height="680px" viewBox="0 0 620 680" version="1.1" xmlns="http://www.w3.org/2000/svg" xmlns:xlink="http://www.w3.org/1999/xlink">
    <!-- Generator: Sketch 48.2 (47327) - http://www.bohemiancoding.com/sketch -->
    <title>diamond-snake-logo</title>
    <desc>Created with Sketch.</desc>
    <defs></defs>
    <g id="Page-1" stroke="none" stroke-width="1" fill="none" fill-rule="evenodd">
        <g id="diamond-snake-logo" fill-rule="nonzero">
            <path d="M177.1,248.2 C167.677774,230.54514 167.677774,209.35486 177.1,191.7 L130,220 L177.1,248.2 Z" id="Shape" fill="#6065F3"></path>
            <path d="M14.7,174.8 C8.49123845,204.613515 8.49123845,235.386485 14.7,265.2 L90,220 L14.7,174.8 Z" id="Shape" fill="#6065F3"></path>
            <polygon id="Shape" fill="#00F5BC" points="230 360 230 500 70 400"></polygon>
            <path d="M130,280 L18.3,280 C31.110773,325.098728 57.9812724,364.931528 95,393.7 L130,385 L130,280 Z" id="Shape" fill="#6065F3"></path>
            <polygon id="Shape" fill="#6065F3" points="390 320 390 460 230 360"></polygon>
            <polygon id="Shape" fill="#6065F3" points="230 280 321.4 337.1 390 320 390 280"></polygon>
            <polygon id="Shape" fill="#6065F3" points="230 500 230 640 70 540"></polygon>
            <polygon id="Shape" fill="#6065F3" points="390 460 390 600 230 500"></polygon>
            <polygon id="Shape" fill="#6065F3" points="390 600 390 680 230 640"></polygon>
            <polygon id="Shape" fill="#6065F3" points="230 640 230 680 70 680"></polygon>
            <path d="M0,470 C0,508.659932 31.3400675,540 70,540 L70,400 C31.3400675,400 0,431.340068 0,470 Z" id="Shape" fill="#6065F3"></path>
            <path d="M0,610 C0,648.659932 31.3400675,680 70,680 L70,540 C31.3400675,540 0,571.340068 0,610 Z" id="Shape" fill="#6065F3"></path>
            <path d="M550.000001,280 L390,320 L550.000001,420 C588.659933,419.999999 620,388.659932 620,350 C620,311.340068 588.659933,280.000001 550.000001,280 Z" id="Shape" fill="#6065F3"></path>
            <path d="M550,420 L390,460 L550,560 C588.659932,560 620,528.659932 620,490 C620,451.340068 588.659932,420 550,420 Z" id="Shape" fill="#6065F3"></path>
            <g id="Group" transform="translate(18.000000, 0.000000)" fill="#00F5BC">
                <path d="M532,560 L372,600 L532,680 C565.137085,680 592,653.137085 592,620 C592,586.862915 565.137085,560 532,560 Z" id="Shape"></path>
                <path d="M432,100 L372,160 L0.3,160 C26.4,67.7 111.3,0 212,0 C334.9,0 432,100 432,100 Z M262,40 C245.431458,40 232,53.4314575 232,70 C232,86.5685425 245.431458,100 262,100 C278.568542,100 292,86.5685425 292,70 C292,53.4314575 278.568542,40 262,40 Z" id="Shape"></path>
            </g>
        </g>
    </g>
</svg>
